source/img/svg/qty-plus.svg

<svg xmlns="http://www.w3.org/2000/svg" viewBox="0 0 20 20"><path fill="#1d2e5b" d="M20 9h-9V0H9v9H0v2h9v9h2v-9h9z"/></svg>

<svg version="1.1" id="Layer_1" xmlns="http://www.w3.org/2000/svg" x="0" y="0" viewBox="0 0 20 20" xml:space="preserve"><path fill="#1d2e5b" d="M20 9L11 9 11 0 9 0 9 9 0 9 0 11 9 11 9 20 11 20 11 11 20 11z"/></svg>
